img/proton-qt.svg

<?xml version="1.0" encoding="UTF-8" standalone="no"?>
<svg
   version="1.1"
   width="128px"
   height="128px"
   style="shape-rendering:geometricPrecision; text-rendering:geometricPrecision; image-rendering:optimizeQuality; fill-rule:evenodd; clip-rule:evenodd"
   id="svg41"
   sodipodi:docname="net.davidotek.pupgui2.svg"
   inkscape:version="1.3.2 (091e20ef0f, 2023-11-25, custom)"
   xmlns:inkscape="http://www.inkscape.org/namespaces/inkscape"
   xmlns:sodipodi="http://sodipodi.sourceforge.net/DTD/sodipodi-0.dtd"
   xmlns="http://www.w3.org/2000/svg"
   xmlns:svg="http://www.w3.org/2000/svg">
  <defs
     id="defs41" />
  <sodipodi:namedview
     id="namedview41"
     pagecolor="#ffffff"
     bordercolor="#000000"
     borderopacity="0.25"
     inkscape:showpageshadow="2"
     inkscape:pageopacity="0.0"
     inkscape:pagecheckerboard="0"
     inkscape:deskcolor="#d1d1d1"
     inkscape:zoom="1.7226563"
     inkscape:cx="0.8707483"
     inkscape:cy="90.557823"
     inkscape:window-width="1920"
     inkscape:window-height="1128"
     inkscape:window-x="0"
     inkscape:window-y="0"
     inkscape:window-maximized="1"
     inkscape:current-layer="svg41" />
  <circle
     style="shape-rendering:geometricPrecision;text-rendering:geometricPrecision;image-rendering:optimizeQuality;fill-rule:evenodd;clip-rule:evenodd;fill:#ffffff;fill-opacity:1;stroke:#000000;stroke-width:0.999998;stroke-opacity:1"
     id="path1-6"
     cx="64"
     cy="64"
     r="56.750004" />
  <g
     id="g1">
    <path
       style="opacity:0.008"
       fill="#888888"
       d="M 36.5,11.5 C 35.7095,12.4013 34.7095,13.0679 33.5,13.5C 33.3893,12.8826 33.056,12.3826 32.5,12C 33.7932,11.51 35.1266,11.3433 36.5,11.5 Z"
       id="path1" />
  </g>
  <g
     id="g2">
    <path
       style="opacity:0.004"
       fill="#cecece"
       d="M 29.5,14.5 C 29.1788,16.0481 28.1788,16.7148 26.5,16.5C 26.9731,15.0937 27.9731,14.427 29.5,14.5 Z"
       id="path2" />
  </g>
  <g
     id="g3">
    <path
       style="opacity:0.004"
       fill="#fbfbfb"
       d="M 98.5,14.5 C 99.8333,15.1667 99.8333,15.1667 98.5,14.5 Z"
       id="path3" />
  </g>
  <g
     id="g4">
    <path
       style="opacity:0.004"
       fill="#010201"
       d="M 107.5,23.5 C 108.833,24.1667 108.833,24.1667 107.5,23.5 Z"
       id="path4" />
  </g>
  <g
     id="g5">
    <path
       style="opacity:0.012"
       fill="#777777"
       d="M 109.5,28.5 C 110.5,28.5 111.5,28.5 112.5,28.5C 112.5,29.5 112.5,30.5 112.5,31.5C 110.5,31.5 109.5,30.5 109.5,28.5 Z"
       id="path5" />
  </g>
  <g
     id="g6">
    <path
       style="opacity:0.004"
       fill="#b6b6b6"
       d="M 120.5,49.5 C 121.506,50.3957 121.506,51.0623 120.5,51.5C 119.167,50.8333 119.167,50.1667 120.5,49.5 Z"
       id="path6" />
  </g>
  <g
     id="g8">
    <path
       style="opacity:0.004"
       fill="#dbdbdb"
       d="M 114.5,93.5 C 111.999,93.4891 111.832,92.8224 114,91.5C 114.464,92.0944 114.631,92.7611 114.5,93.5 Z"
       id="path8" />
  </g>
  <g
     id="g10">
    <path
       style="opacity:1"
       fill="#83f3a2"
       d="M 67.5,103.5 C 64.6146,103.806 61.9479,103.473 59.5,102.5C 59.5,96.8333 59.5,91.1667 59.5,85.5C 62.1441,85.1601 64.4775,85.8267 66.5,87.5C 67.4948,92.7921 67.8282,98.1254 67.5,103.5 Z"
       id="path10" />
  </g>
  <g
     id="g11">
    <path
       style="opacity:1"
       fill="#90eba5"
       d="M 69.5,79.5 C 69.5,80.1667 69.5,80.8333 69.5,81.5C 70.1299,89.2428 69.4633,96.5762 67.5,103.5C 67.8282,98.1254 67.4948,92.7921 66.5,87.5C 64.4775,85.8267 62.1441,85.1601 59.5,85.5C 59.5,91.1667 59.5,96.8333 59.5,102.5C 58.7321,101.737 58.2321,100.737 58,99.5C 57.5004,92.8417 57.3337,86.175 57.5,79.5C 58.1556,80.2778 58.9889,80.9444 60,81.5C 61.4195,79.5781 63.2528,78.2448 65.5,77.5C 66.8669,78.2255 68.2003,78.8921 69.5,79.5 Z"
       id="path11" />
  </g>
  <g
     id="g13">
    <path
       style="opacity:1"
       fill="#acc362"
       d="M 67.5,75.5 C 68.1667,76.1667 68.8333,76.8333 69.5,77.5C 69.5,77.8333 69.5,78.1667 69.5,78.5C 69.5,78.8333 69.5,79.1667 69.5,79.5C 68.2003,78.8921 66.8669,78.2255 65.5,77.5C 63.2528,78.2448 61.4195,79.5781 60,81.5C 58.9889,80.9444 58.1556,80.2778 57.5,79.5C 57.5,79.1667 57.5,78.8333 57.5,78.5C 57.5,78.1667 57.5,77.8333 57.5,77.5C 58.1667,77.5 58.8333,77.5 59.5,77.5C 62.0037,76.3608 64.6703,75.6941 67.5,75.5 Z"
       id="path13" />
  </g>
  <g
     id="g15">
    <path
       style="opacity:1"
       fill="#8ad39f"
       d="M 84.5,55.5 C 83.8333,55.5 83.1667,55.5 82.5,55.5C 78.5368,51.0355 74.3702,46.7022 70,42.5C 69.5008,47.1548 69.3342,51.8215 69.5,56.5C 66.9348,60.8022 66.9348,65.1355 69.5,69.5C 69.5,72.1667 69.5,74.8333 69.5,77.5C 68.8333,76.8333 68.1667,76.1667 67.5,75.5C 67.1417,71.4908 66.6417,67.4908 66,63.5C 64.6759,66.2437 62.5092,67.577 59.5,67.5C 59.5,70.8333 59.5,74.1667 59.5,77.5C 58.8333,77.5 58.1667,77.5 57.5,77.5C 57.5,77.1667 57.5,76.8333 57.5,76.5C 57.5,74.5 57.5,72.5 57.5,70.5C 57.5,70.1667 57.5,69.8333 57.5,69.5C 57.5,67.8333 57.5,66.1667 57.5,64.5C 63.3335,65.6627 66.0002,63.3294 65.5,57.5C 67.4461,52.6042 68.1128,47.2709 67.5,41.5C 71.8863,40.7691 74.7196,42.4358 76,46.5C 79.0379,49.3694 81.8712,52.3694 84.5,55.5 Z"
       id="path15" />
  </g>
  <g
     id="g16">
    <path
       style="opacity:1"
       fill="#82f2a0"
       d="M 67.5,75.5 C 64.6703,75.6941 62.0037,76.3608 59.5,77.5C 59.5,74.1667 59.5,70.8333 59.5,67.5C 62.5092,67.577 64.6759,66.2437 66,63.5C 66.6417,67.4908 67.1417,71.4908 67.5,75.5 Z"
       id="path16" />
  </g>
  <g
     id="g19" />
  <g
     id="g20">
    <path
       style="opacity:1"
       fill="#86eba3"
       d="M 101.5,57.5 C 103.391,59.8357 103.891,62.5024 103,65.5C 101.89,67.0368 100.39,67.7035 98.5,67.5C 98.3347,63.8183 98.5014,60.1516 99,56.5C 99.6708,57.2524 100.504,57.5858 101.5,57.5 Z"
       id="path20" />
  </g>
  <g
     id="g24">
    <path
       style="opacity:1"
       fill="#94e2aa"
       d="M 29.5,53.5 C 29.5,54.1667 29.5,54.8333 29.5,55.5C 28.5166,59.2984 28.1832,63.2984 28.5,67.5C 24.9376,67.4362 23.2709,65.6028 23.5,62C 24.0929,58.2303 26.0929,55.397 29.5,53.5 Z"
       id="path24" />
  </g>
  <g
     id="g27">
    <path
       style="opacity:1"
       fill="#7fc796"
       d="M 31.5,58.5 C 33.1667,58.5 34.8333,58.5 36.5,58.5C 36.5,59.8333 36.5,61.1667 36.5,62.5C 34.8333,62.5 33.1667,62.5 31.5,62.5C 31.5,61.1667 31.5,59.8333 31.5,58.5 Z"
       id="path27" />
  </g>
  <g
     id="g34">
    <path
       style="opacity:1"
       fill="#9adaab"
       d="M 89.5,45.5 C 93.8333,49.1667 97.8333,53.1667 101.5,57.5C 100.504,57.5858 99.6708,57.2524 99,56.5C 98.5014,60.1516 98.3347,63.8183 98.5,67.5C 98.1667,67.5 97.8333,67.5 97.5,67.5C 97.5,63.8333 97.5,60.1667 97.5,56.5C 97.5,55.8333 97.1667,55.5 96.5,55.5C 94.1667,52.1667 91.8333,48.8333 89.5,45.5 Z"
       id="path34" />
  </g>
  <g
     id="g36">
    <path
       style="opacity:1"
       fill="#a4e5b6"
       d="M 73.5,29.5 C 70.7746,28.287 68.4412,26.4536 66.5,24C 64.5,23.3333 62.5,23.3333 60.5,24C 50.5797,34.4241 40.2464,44.2574 29.5,53.5C 39.2978,43.2016 49.2978,33.0349 59.5,23C 60.8721,22.5983 62.2054,22.0983 63.5,21.5C 67.7202,23.0531 71.0536,25.7198 73.5,29.5 Z"
       id="path36" />
  </g>
  <g
     id="g37">
    <path
       style="opacity:1"
       fill="#a9e7b7"
       d="M 73.5,29.5 C 76.5,31.8333 79.1667,34.5 81.5,37.5C 77.8333,35.8333 75.1667,33.1667 73.5,29.5 Z"
       id="path37" />
  </g>
  <g
     id="g38">
    <path
       style="opacity:1"
       fill="#83f4a0"
       d="M 73.5,29.5 C 75.1667,33.1667 77.8333,35.8333 81.5,37.5C 84.5,39.8333 87.1667,42.5 89.5,45.5C 91.8333,48.8333 94.1667,52.1667 96.5,55.5C 95.8333,55.5 95.1667,55.5 94.5,55.5C 93.8333,55.5 93.1667,55.5 92.5,55.5C 91.209,55.2627 90.209,55.596 89.5,56.5C 89.5,57.1667 89.5,57.8333 89.5,58.5C 88.8826,58.6107 88.3826,58.944 88,59.5C 86.9609,58.2899 85.7942,57.2899 84.5,56.5C 84.5,56.1667 84.5,55.8333 84.5,55.5C 81.8712,52.3694 79.0379,49.3694 76,46.5C 74.7196,42.4358 71.8863,40.7691 67.5,41.5C 68.1128,47.2709 67.4461,52.6042 65.5,57.5C 64.391,57.4431 63.391,57.1098 62.5,56.5C 61.4324,55.5655 60.099,55.2322 58.5,55.5C 58.6655,51.4862 58.4988,47.4862 58,43.5C 53.3619,41.2477 50.6952,42.5811 50,47.5C 48.4207,49.0412 46.5873,50.2078 44.5,51C 43.7775,52.7505 42.7775,54.2505 41.5,55.5C 40.2223,55.7822 39.2223,56.4489 38.5,57.5C 37.8333,57.1667 37.1667,56.8333 36.5,56.5C 34.3926,55.5318 32.0593,55.1984 29.5,55.5C 29.5,54.8333 29.5,54.1667 29.5,53.5C 40.2464,44.2574 50.5797,34.4241 60.5,24C 62.5,23.3333 64.5,23.3333 66.5,24C 68.4412,26.4536 70.7746,28.287 73.5,29.5 Z"
       id="path38" />
  </g>
  <g
     id="g39">
    <path
       style="opacity:1"
       fill="#a2ebbb"
       d="M 58.5,55.5 C 58.1667,55.5 57.8333,55.5 57.5,55.5C 57.665,52.1501 57.4983,48.8168 57,45.5C 55.4931,44.4652 53.9931,44.6319 52.5,46C 49.5516,48.9629 46.885,52.1296 44.5,55.5C 43.5,55.5 42.5,55.5 41.5,55.5C 42.7775,54.2505 43.7775,52.7505 44.5,51C 46.5873,50.2078 48.4207,49.0412 50,47.5C 50.6952,42.5811 53.3619,41.2477 58,43.5C 58.4988,47.4862 58.6655,51.4862 58.5,55.5 Z"
       id="path39" />
  </g>
  <g
     id="g40">
    <path
       style="opacity:0.004"
       fill="#dcdbdc"
       d="M 69.5,4.5 C 69.8333,4.5 70.1667,4.5 70.5,4.5C 70.6309,5.37644 70.2975,6.04311 69.5,6.5C 68.537,6.03017 68.537,5.3635 69.5,4.5 Z"
       id="path40" />
  </g>
  <g
     id="g41">
    <path
       style="opacity:0.004"
       fill="#fdfdfd"
       d="M 86.5,117.5 C 85.9941,119.105 85.3274,119.439 84.5,118.5C 84.8417,117.662 85.5084,117.328 86.5,117.5 Z"
       id="path41" />
  </g>
  <text
     xml:space="preserve"
     style="font-size:19.4522px;fill:#000000;stroke:none;stroke-width:36.6614;stroke-linejoin:round;stroke-miterlimit:4.8;stroke-opacity:1;paint-order:markers stroke fill"
     x="25.499838"
     y="72.658073"
     id="text41"
     transform="scale(1.0553996,0.94750842)"><tspan
       sodipodi:role="line"
       id="tspan41"
       x="25.499838"
       y="72.658073"
       style="font-weight:bold;stroke-width:36.6614">PUPGUI</tspan></text>
</svg>

<svg xmlns="http://www.w3.org/2000/svg" width="128" height="128" style="shape-rendering:geometricPrecision;text-rendering:geometricPrecision;image-rendering:optimizeQuality;fill-rule:evenodd;clip-rule:evenodd"><circle cx="64" cy="64" r="56.75" style="shape-rendering:geometricPrecision;text-rendering:geometricPrecision;image-rendering:optimizeQuality;fill-rule:evenodd;clip-rule:evenodd;fill:#fff;fill-opacity:1;stroke:#000;stroke-width:.999998;stroke-opacity:1"/><path fill="#888" d="M36.5 11.5q-1.185 1.352-3 2-.166-.925-1-1.5a8.4 8.4 0 0 1 4-.5" style="opacity:.008"/><path fill="#cecece" d="M29.5 14.5q-.482 2.322-3 2 .71-2.11 3-2" style="opacity:.004"/><path fill="#fbfbfb" d="M98.5 14.5q2 1 0 0" style="opacity:.004"/><path fill="#010201" d="M107.5 23.5q2 1 0 0" style="opacity:.004"/><path fill="#777" d="M109.5 28.5h3v3q-3 0-3-3" style="opacity:.012"/><path fill="#b6b6b6" d="M120.5 49.5q1.509 1.343 0 2-2-1 0-2" style="opacity:.004"/><path fill="#dbdbdb" d="M114.5 93.5q-3.752-.016-.5-2 .696.891.5 2" style="opacity:.004"/><path fill="#83f3a2" d="M67.5 103.5q-4.328.46-8-1v-17q3.966-.51 7 2a65 65 0 0 1 1 16" style="opacity:1"/><path fill="#90eba5" d="M69.5 79.5v2q.945 11.614-2 22a65 65 0 0 0-1-16q-3.034-2.51-7-2v17q-1.152-1.144-1.5-3-.75-9.987-.5-20 .984 1.166 2.5 2 2.13-2.883 5.5-4 2.05 1.088 4 2" style="opacity:1"/><path fill="#acc362" d="m67.5 75.5 2 2v2a89 89 0 0 1-4-2q-3.37 1.117-5.5 4-1.516-.834-2.5-2v-2h2q3.755-1.71 8-2" style="opacity:1"/><path fill="#8ad39f" d="M84.5 55.5h-2a228 228 0 0 0-12.5-13 98.4 98.4 0 0 0-.5 14q-3.847 6.453 0 13v8l-2-2q-.537-6.015-1.5-12-1.986 4.116-6.5 4v10h-2v-13q8.75 1.745 8-7 2.92-7.344 2-16 6.58-1.096 8.5 5 4.557 4.305 8.5 9" style="opacity:1"/><path fill="#82f2a0" d="M67.5 75.5q-4.245.29-8 2v-10q4.514.116 6.5-4 .963 5.985 1.5 12" style="opacity:1"/><path fill="#86eba3" d="M101.5 57.5q2.837 3.503 1.5 8-1.665 2.306-4.5 2a61 61 0 0 1 .5-11q1.005 1.128 2.5 1" style="opacity:1"/><path fill="#94e2aa" d="M29.5 53.5v2q-1.475 5.697-1 12-5.344-.096-5-5.5.89-5.655 6-8.5" style="opacity:1"/><path fill="#7fc796" d="M31.5 58.5h5v4h-5z" style="opacity:1"/><path fill="#9adaab" d="M89.5 45.5a102 102 0 0 1 12 12q-1.495.128-2.5-1a61 61 0 0 0-.5 11h-1v-11q0-1-1-1z" style="opacity:1"/><path fill="#a4e5b6" d="M73.5 29.5q-4.088-1.82-7-5.5-3-1-6 0a429 429 0 0 1-31 29.5 1290 1290 0 0 1 30-30.5 29 29 0 0 0 4-1.5q6.33 2.33 10 8" style="opacity:1"/><path fill="#a9e7b7" d="M73.5 29.5q4.5 3.5 8 8-5.5-2.5-8-8" style="opacity:1"/><path fill="#83f4a0" d="M73.5 29.5q2.5 5.5 8 8 4.5 3.5 8 8l7 10h-4q-1.936-.356-3 1v2q-.925.165-1.5 1a14.7 14.7 0 0 0-3.5-3v-1a107 107 0 0 0-8.5-9q-1.92-6.096-8.5-5 .92 8.656-2 16a5.73 5.73 0 0 1-3-1q-1.602-1.401-4-1a72.4 72.4 0 0 0-.5-12q-6.957-3.378-8 4a15.8 15.8 0 0 1-5.5 3.5q-1.083 2.625-3 4.5-1.917.423-3 2l-2-1q-3.16-1.453-7-1v-2a429 429 0 0 0 31-29.5q3-1 6 0 2.912 3.68 7 5.5" style="opacity:1"/><path fill="#a2ebbb" d="M58.5 55.5h-1a50.4 50.4 0 0 0-.5-10q-2.26-1.552-4.5.5a74 74 0 0 0-8 9.5h-3q1.917-1.875 3-4.5a15.8 15.8 0 0 0 5.5-3.5q1.043-7.378 8-4 .749 5.979.5 12" style="opacity:1"/><path fill="#dcdbdc" d="M69.5 4.5h1q.195 1.314-1 2-1.444-.705 0-2" style="opacity:.004"/><path fill="#fdfdfd" d="M86.5 117.5q-.76 2.408-2 1 .513-1.257 2-1" style="opacity:.004"/><text xml:space="preserve" x="25.5" y="72.658" style="font-size:19.4522px;fill:#000;stroke:none;stroke-width:36.6614;stroke-linejoin:round;stroke-miterlimit:4.8;stroke-opacity:1;paint-order:markers stroke fill" transform="scale(1.0554 .9475)"><tspan x="25.5" y="72.658" style="font-weight:700;stroke-width:36.6614">PUPGUI</tspan></text></svg>
